X:176
T:Miss Lamberts Delight THO4.176
M:9/8
L:1/8
Z:vmp. Peter Dunk 2010/11.from a transcription by Fynn Titford-Mock 2007
B:Thompson's Compleat Collection of 200 Favourite Country Dances Volume IV.
Q:3/8=110
K:G
g3 gfe dcB|ced cBA BAG|g3 gfe fag|fed AB^c d3:|
|:d3 dBG ecA|d3 dBG AFD| d3 dBG ecA|BdB cAF G3:|
